!!!!SEGMENT: pl-sa--574-a-ix-54--004_anonim--marsz.krn
!!!cenid: 18xx:614
!!!COM: Anonim
!!!COM-rismid: pe30004985
!!!CDT:
!!!CNT:
!!!OTL: Marsz
!!!PDT:
!!!AGN: Secular; March
!!!SMS-siglum: PL-SA
!!!SMS-shelfmark: 574/A IX 54
!!!SMS-shelfwork: 004 W
!!!SMS-variant:
!!!SMS-altvar:
!!!NIFC-rismid: 1001065503
!!!system-decoration: {(s1,s2)}
!!!key:
**kern	**kern
*part1	*part1
*staff2	*staff1
*Iempty	*Ipiano
*	*I"Piano
*clefF4	*clefG2
*k[]	*k[]
*C:	*C:
*M2/4	*M2/4
*>[A,A,B,B]	*>[A,A,B,B]
*>A	*>A
!	!LO:TX:a:Bi:t=Marsz:rj
8r	16eeLL 16cc\
.	16ffJJ 16dd\
=1	=1
!LO:TX:a:t=P:problem=mixed beam	!
8CC/L	8ggL 8ee\
8C\J	16ggL 16ee\
.	16ggJJ 16ee\
8CC/	8ggL 8ee\
8r	16aaL 16ff\
.	16bbJJ 16gg\
=2	=2
*rep	*
!LO:TX:a:t=P:problem=mixed beam	!
8CC/L	8cccL 8gg 8ee\
8C\J	16cccL 16gg 16ee\
.	16cccJJ 16gg 16ee\
8CC/	16cccLL 16gg 16ee\
.	16bb 16gg\
*Xrep	*
8r	16aa 16ff\
.	16ggJJ 16ee\
=3	=3
!LO:TX:a:t=P:problem=w źródle dwudźwięk bez caudy	!
4BB 4BBB/	16.ffLL 16.dd\
.	32eeK 32cc\
.	16.ff 16.dd\
.	32ggJJk 32ee\
!LO:TX:a:t=P:problem=w źródle dwudźwięk bez caudy	!
4C 4CC/	16.eeLL 16.cc\
.	32ddK 32b\
.	16.ee 16.cc\
.	32ffJJk 32dd\
=4	=4
8GL 8GG\	8ddL 8b 8g\
16GL 16GG\	16ddL 16b 16g\
16GJJ 16GG\	16ddJJ 16b 16g\
8G 8GG\	8ddL 8b 8g\
8r	16eeL 16cc\
.	16ffJJ 16dd\
=5	=5
!LO:TX:a:t=P:problem=mixed beam	!
8CC/L	8ggL 8ee\
8C\J	16ggL 16ee\
.	16ggJJ 16ee\
8CC/	8ggL 8ee\
8r	16aaL 16ff\
.	16bbJJ 16gg\
=6	=6
*rep	*
!LO:TX:a:t=P:problem=mixed beam	!
8CC/L	8cccL 8gg 8ee\
8C\J	16cccL 16gg 16ee\
.	16cccJJ 16gg 16ee\
8CC/	16.cccLL 16.gg 16.ee\
.	32bbK 32gg\
*Xrep	*
8r	16.aa 16.ff\
.	32ggJJk 32ee\
=7	=7
4F 4FF\	16.aaLL 16.ff\
.	32bbK 32gg\
.	16.ccc 16.aa\
.	32aaJJk 32ff\
4G 4GG\	16.ggLL 16.ee\
.	32eeK 32cc\
.	16.ff 16.dd\
.	32eeJJk 32cc\
=8	=8
8CL 8CC/	8eeL 8cc\
16CL 16CC/	16cccL 16gg 16ee\
16CJJ 16CC/	16cccJJ 16gg 16ee\
4C 4CC/	4ccc 4gg 4ee\
!!LO:LB:g=original
=9:|!|:	=9:|!|:
*>B	*>B
16AALL 16FF/	16dd\LL
16BBB/	16gg\
16AA 16FF/	16dd\
16BBB/JJ	16b\JJ
16GGLL 16EE/	16cc\LL
16BBB/	16gg\
16GG 16EE/	16ee\
16BBB/JJ	16cc\JJ
=10	=10
*rep	*rep
16AALL 16FF/	16dd\LL
16BBB/	16gg\
16AA 16FF/	16dd\
16BBB/JJ	16b\JJ
16GGLL 16EE/	16cc\LL
16BBB/	16gg\
16GG 16EE/	16ee\
16BBB/JJ	16cc\JJ
*Xrep	*Xrep
=11	=11
*rep	*rep
16AALL 16FF/	16dd\LL
16BBB/	16gg\
16AA 16FF/	16dd\
16BBB/JJ	16b\JJ
16GGLL 16EE/	16cc\LL
16BBB/	16gg\
16GG 16EE/	16ee\
16BBB/JJ	16cc\JJ
*Xrep	*Xrep
=12	=12
16AALL 16FF/	16dd\LL
16BBB/JJ	16gg\
16GGLL 16EE/	16ee\
16BBB/JJ	16gg\JJ
8FF 8DD/	8ddL 8b\
8r	16eeL 16cc\
.	16ffJJ 16dd\
=13	=13
!LO:TX:a:t=P:problem=mixed beam	!
8CC/L	8ggL 8ee\
8C\J	16ggL 16ee\
.	16ggJJ 16ee\
8CC/	8gg 8ee\
8r	16aa 16ff\
.	16bb 16gg\
=14	=14
*rep	*
!LO:TX:a:t=P:problem=mixed beam	!
8CC/L	8bbL 8gg 8ee\
8C\J	16cccL 16gg 16ee\
.	16cccJJ 16gg 16ee\
8CC/	16aaLL 16gg 16ee\
.	16bb 16gg\
*Xrep	*
8r	16.aa 16.gg\
.	32ggJJk 32ee\
=15	=15
!LO:TX:a:t=P:problem=mixed beam	!
8F\L	16.aaLL 16.ff\
.	32bbK 32gg\
8FF/J	16.ccc 16.aa\
.	32aaJJk 32ff\
!LO:TX:a:t=P:problem=mixed beam	!
8G\L	16.ggLL 16.ee\
.	32ffK 32dd\
8GG/J	16.ee 16.cc\
.	32ddJJk 32b\
=16	=16
8CL 8CC/	8eeL 8cc\
16CL 16CC/	16.cccL 16.gg 16.ee\
16CJJ 16CC/	.
.	32cccJJk 32gg 32ee\
4C 4CC/	4ccc 4gg 4ee\
!LO:TX:a:t=P:problem=ozdobna kreska końcowa &colon;||&colon; połączona z repetycją	!LO:TX:a:t=P:problem=ozdobna kreska końcowa &colon;||&colon; połączona z repetycją
==:|!;;	==:|!;;
*-	*-
!!title: @{OTL};
!!!RDF**kern: > = above
!!!RDF**kern: < = below
!!!EED: Wojciech Jakubiak-Danek
!!!EST: 2020-12-10
!!!URL-scan: http://bc.bdsandomierz.pl/dlibra/publication/1380/edition/1348/content
!!!ONB-nifc: Str. 10, s. 4-5
!!!AIN: 1 empty
!!!ENC: Tomasz Grochalski
!!!END: 2020-06-19
